X:1
T:Title
%%score ( 1 2 ) ( 3 4 5 )
L:1/8
Q:1/4=98
M:4/4
K:F
V:1 treble nm="Akkordion, Soprano"
V:2 treble 
V:3 bass nm="Drawbar Organ, Beautiful Christmas (Hall)"
V:4 bass 
V:5 bass 
V:1
 [CF]2 D>[DE] [CF]2 C2 | [B,D]2 [B,G]>[B,F] [CF]2 [CE]2 | [CA]2 [^CA]>[CA] [DA]2 [Dc]>[DB] | %3
w: By~Joseph~Lincoln~Hall * * * *|||
 [FA]4 [EG]4 | [Ec]2 [Gd]>[Ge] [Ff]2 [Fc]2 | [FA]2 [FB]>[Fc] [Fd]2 [GB]2 | %6
w: |||
 [FA]2 [EG]>[FA] [Ec]2 [CE]2 | [CF]6 z2 |[M:6/8] F3 .D3 | .C6[K:bass] | F3 .D3 | G6 | B3 .A3 | %13
w: |||||||
 F3 D3[K:bass] | .E3[K:treble] A3 | A6 | B3 .A3 | d3 A3 | B3 A3 | G3 F3 | f3 .e3 | .c3 z3 | E3 C3 | %23
w: ||||||||||
 F6- | F3 z3 |] %25
w: ||
V:2
 x8 | x8 | x8 | x8 | x8 | x8 | x8 | x8 |[M:6/8] z [A,C][A,C] z A,[A,CF] | z[K:bass] A,A, A,DE | %10
 z [A,C][A,C] z A,[A,CF] | z [B,D][B,D] [B,D][B,D][B,D] | z [B,D][B,D] z [B,D][B,DG] | %13
 z [A,D][A,D] z[K:bass] A,A, | z [A,^C][A,C][K:treble] z [A,CE][A,CE] | %15
 z [A,D^F][A,DF] [A,DF][A,DF][A,DF] | z [B,DG][B,DG] z [B,D][B,DG] | z [DFA][DFA] z [DF][DF] | %18
 z [EG][EG] z [^CE][CE] | z DD z DD | z [F_A=Bd][FABd] z [FAB][FABd] | z [CFA][CFA] FED | %22
 z [B,C][B,C] z [G,B,][G,B,] | z [A,C][_A,=B,] [=A,C]3- | [A,C]3 z3 |] %25
V:3
 [F,A,]2 [F,B,]>[F,B,] [F,A,]2 [F,A,]2 | [B,,F,]2 [G,,G,]>[G,,G,] [C,A,]2 [C,G,]2 | %2
 F,2 [E,G,]>[E,G,] [D,F,]2 [G,B,]>[G,B,] | C2- [F,C-][A,C][K:treble] C4 | %4
 [B,C]2 [B,C]>[B,C] [A,C]2[K:bass] [A,C]2 | [F,C]2 [G,C]>[A,C] B,2 [G,D]2 | %6
 [C,C]2 [C,C]>[C,C] [C,G,]2 [C,B,]2 | [F,A,]6 z2 |[M:6/8] F,-[C,F,-][C,F,] z F,F, | %9
 z F,F, [F,,C,][D,F,]E, | z C,C, z F,[A,,F,] | G,-[D,G,-][D,G,-] [D,G,-][D,G,-][D,G,] | %12
 z [D,G,][D,G,] z [D,G,][D,G,] | z F,F, F,F,F, | z G,G, z [E,G,][E,G,] | z ^F,F, F,F,F, | %16
 z [D,G,][D,G,] z [D,G,][D,G,] | z A,A, z A,A, | z G,G, z G,G, | z [F,A,][F,A,] z [F,A,][F,A,] | %20
 z [^F,G,=B,][F,G,B,] z [F,G,B,][F,G,B,] | z [F,A,][F,A,] F,E,D, | z C,C, z E,E, | %23
 F,-[C,F,-][D,F,] [C,F,]3- | [C,F,]3 z3 |] %25
V:4
 x8 | x8 | x8 | C,2 z2[K:treble] z4 | x6[K:bass] x2 | x8 | x8 | x8 |[M:6/8] z3 .D,3 | [F,,C,]3 z3 | %10
 [F,,F,]3 .[F,,D,]3 | G,,3 G,,3 | G,,3 B,,3 | D,3 z3 | E,3 A,,3 | D,6 | G,,3 B,,3 | D,3 D,3 | %18
 ^C,3 E,3 | D,3 D,3 | =B,,3 D,3 | C,3 z3 | E,3 C,3 | F,,6- | F,,3 z3 |] %25
V:5
 x8 | x8 | x8 | x4[K:treble] x4 | x6[K:bass] x2 | x8 | x8 | x8 |[M:6/8] F,,6 | x6 | x6 | x6 | x6 | %13
 x6 | x6 | x6 | x6 | x6 | x6 | x6 | x6 | x6 | x6 | x6 | x6 |] %25

